public/images/concession.svg

<svg fill="none" height="195" viewBox="0 0 221 195" width="221" xmlns="http://www.w3.org/2000/svg"><g fill="#000" fill-opacity=".7"><path d="m158.116 139.769c.991 0 1.942-.393 2.643-1.094s1.095-1.652 1.095-2.643-.394-1.942-1.095-2.643-1.652-1.095-2.643-1.095-1.942.394-2.643 1.095-1.094 1.652-1.094 2.643.393 1.942 1.094 2.643 1.652 1.094 2.643 1.094zm18.615 6.265c0 .992-.394 1.942-1.094 2.643-.701.701-1.652 1.095-2.643 1.095-.992 0-1.942-.394-2.643-1.095s-1.095-1.651-1.095-2.643c0-.991.394-1.942 1.095-2.642.701-.701 1.651-1.095 2.643-1.095.991 0 1.942.394 2.643 1.095.7.7 1.094 1.651 1.094 2.642zm-18.595 16.265c.493 0 .982-.097 1.437-.285.456-.189.87-.466 1.218-.814.349-.349.626-.763.814-1.219.189-.455.286-.944.286-1.437s-.097-.981-.286-1.437c-.188-.455-.465-.869-.814-1.218-.348-.349-.762-.625-1.218-.814-.455-.189-.944-.286-1.437-.286-.996 0-1.951.396-2.655 1.1s-1.1 1.659-1.1 2.655.396 1.951 1.1 2.656c.704.704 1.659 1.099 2.655 1.099zm-17.52-47.76c0-5.475 4.475-10.11 10.15-9.76 22.235 1.37 41.735 8.85 57.01 23.435 4.335 4.135 3.48 10.89-1.015 14.34-6.995 5.4-14.037 10.739-21.125 16.015v8.7c0 3.585-2.775 7.5-7.5 7.5-.846 0-1.686-.136-2.49-.4v.415c0 3.565-2.78 7.455-7.515 7.455-3.77 0-6.255-2.48-7.13-5.25-2.74 2.05-5.735 4.28-8.41 6.27-4.95 3.685-11.975.15-11.975-6zm35.03 52.73c0 1.295.97 2.5 2.49 2.5 1.525 0 2.5-1.215 2.5-2.5v-9.97c.001-.394.094-.782.273-1.133s.438-.655.757-.887c3.9-2.83 10.54-7.875 16.42-12.37-13.465-12.815-32.34-20.42-52.47-20.58v54.925c.002.463.131.916.375 1.309.243.394.591.712 1.005.919.413.207.876.296 1.337.255.461-.04.902-.207 1.273-.483 3.93-2.93 8.565-6.38 12.045-8.99.372-.278.813-.448 1.276-.49.462-.041.927.047 1.342.254.416.208.765.527 1.009.922s.373.85.373 1.314v2.52c0 1.235.95 2.46 2.48 2.46.328.008.654-.049.959-.17.304-.12.582-.3.816-.529.234-.23.42-.504.546-.806s.191-.627.189-.955v-7.515c0-.663.264-1.299.732-1.767.469-.469 1.105-.733 1.768-.733s1.299.264 1.768.733c.469.468.737 1.104.737 1.767zm28.06-28.675c2.325-1.785 2.5-4.965.61-6.77-14.285-13.635-32.6-20.75-53.86-22.06-2.59-.16-4.84 1.97-4.84 4.775v2.79c21.635.165 42.015 8.435 56.485 22.5z"/><path d="m57.6119 135.452c-.5161 1.212-1.1487 2.344-1.9086 3.421-5.7656 8.237-17.0318 10.231-25.1531 4.488-2.7326-1.925-4.848-4.593-6.1537-7.677-.2604-.61-.7438-1.094-1.3507-1.353-.6069-.258-1.291-.271-1.9112-.036-8.8589 2.563-18.05265-2.571-20.520269-11.481-2.467621-8.91 2.720329-18.214 11.586869-20.774 7.5246-2.1867 15.4756 1.199 19.1894 8.173.7264 1.192 2.2229 1.708 3.5247 1.196 9.3671-3.473 19.7238 1.333 23.0794 10.773 1.5518 4.297 1.4149 9.043-.3828 13.27zm-50.96805-21.706c-.99925 2.346-1.18654 4.978-.47713 7.412.3822 1.413 1.03823 2.733 1.93038 3.884.89214 1.152 2.0028 2.113 3.2681 2.827 1.2654.715 2.6604 1.169 4.1049 1.336 1.4445.168 2.9101.045 4.3123-.36 3.9594-1.238 8.1893.777 9.7996 4.631 2.7458 6.347 10.1186 9.182 16.4384 6.361 6.3198-2.822 9.22-10.268 6.4486-16.627-1.2679-2.917-3.5924-5.229-6.5027-6.469-2.9102-1.239-6.1883-1.313-9.1699-.205-1.9125.761-4.0304.786-5.9479.071-1.9175-.716-3.4997-2.122-4.4434-3.949-1.3817-2.606-3.738-4.544-6.5512-5.388-2.8131-.844-5.853-.525-8.4516.888-1.51744.876-2.78749 1.95-3.79213 3.319zm7.64525 3.256c1.4016.597 3.0425-.075 3.6464-1.493.604-1.418-.0487-3.067-1.4503-3.664s-3.0425.075-3.6465 1.493c-.6039 1.418.0487 3.067 1.4504 3.664zm35.3253 8.952c.604-1.418-.0487-3.066-1.4503-3.663s-3.0425.075-3.6465 1.493c-.6039 1.418.0487 3.066 1.4503 3.663 1.4017.597 3.0426-.075 3.6465-1.493zm-8.7433-.677c.604-1.418-.0487-3.067-1.4503-3.664s-3.0425.075-3.6465 1.493c-.6039 1.418.0487 3.067 1.4504 3.664 1.4016.597 3.0425-.075 3.6464-1.493zm2.9007 7.327c.6039-1.418-.0487-3.067-1.4504-3.664-1.4016-.596-3.0425.075-3.6464 1.494-.604 1.418.0487 3.066 1.4503 3.663s3.0425-.075 3.6465-1.493z"/><path d="m90.8717 30.0802c.2632.041.532.029.7905-.0352.2585-.0643.5016-.1795.715-.339s.3927-.36.5276-.5897c.1348-.2298.2224-.4841.2575-.7482.0352-.2641.0173-.5325-.0527-.7895s-.1906-.4975-.3548-.7073c-.1642-.2097-.3687-.3846-.6013-.5143-.2327-.1297-.489-.2116-.7538-.2408-3.76-.5-7.12 2.356-7.12 6.524 0 .5304.2107 1.0391.5858 1.4142.3751.375.8838.5858 1.4142.5858.5305 0 1.0392-.2108 1.4142-.5858.3751-.3751.5858-.8838.5858-1.4142 0-1.828 1.312-2.732 2.592-2.56zm1.376 21.54c4.7686 0 9.3423-1.8944 12.7143-5.2663 3.371-3.3719 5.266-7.9451 5.266-12.7137s-1.895-9.3419-5.266-12.7138c-3.372-3.3719-7.9457-5.2662-12.7143-5.2662s-9.3418 1.8943-12.7137 5.2662c-3.372 3.3719-5.2663 7.9452-5.2663 12.7138s1.8943 9.3418 5.2663 12.7137c3.3719 3.3719 7.9451 5.2663 12.7137 5.2663zm0-4c-3.7077 0-7.2636-1.4729-9.8853-4.0947-2.6218-2.6217-4.0947-6.1776-4.0947-9.8853 0-3.7078 1.4729-7.2636 4.0947-9.8854 2.6217-2.6218 6.1776-4.0946 9.8853-4.0946 3.7078 0 7.2636 1.4728 9.8853 4.0946 2.622 2.6218 4.095 6.1776 4.095 9.8854 0 3.7077-1.473 7.2636-4.095 9.8853-2.6217 2.6218-6.1775 4.0947-9.8853 4.0947zm4.872-47.5600412c4.1803.2720002 8.1043 1.5160012 10.9083 3.2840012 6.428 4.06 9.2 8.52404 10.8 11.32004 1.556 2.712 4.624 8.732 4.184 15.296-.115 1.7681-.348 3.5266-.696 5.264l-.16.856c-.224 1.296-.364 2.624-.128 5.512.28 3.404-.408 7.132-1.848 10.44-1.44 3.3-3.7 6.348-6.712 8.228-6.26 3.912-13.8003 4.76-20.8723 1.932-3.236-1.292-4.328-1.6-5.552-1.672-.8612-.0318-1.7235-.0238-2.584.024h-.028c-1.16.048-2.648.104-4.716.104-9.092 0-15.14-5.44-18.228-11.376-4.524-8.704-4.4-21.88 5.548-29.732 3.04-2.4 3.948-3.2 4.972-4.908 1.684-2.808 3.284-5.00804 5.22-6.90404 1.94-1.904 4.144-3.436 6.976-4.992 4.116-2.264002 8.72-2.952002 12.916-2.6800018m-.26 3.9920018c-3.6-.24-7.416.368-10.732 2.192-2.616 1.44-4.496 2.768-6.1 4.34004-1.604 1.576-3.004 3.464-4.588 6.104-1.448 2.412-2.912 3.612-5.924 5.988-8.04 6.348-8.384 17.24-4.48 24.752 2.58 4.96 7.432 9.22 14.68 9.22 1.992 0 3.424-.056 4.572-.1h.076c1.104-.04 2.04-.08 2.932-.02 1.932.12 3.56.66 6.784 1.952 5.844 2.336 12.0483 1.652 17.2683-1.612 2.152-1.344 3.96-3.66 5.164-6.436 1.208-2.768 1.752-5.832 1.532-8.512-.264-3.196-.12-4.864.172-6.528l.18-.964c.228-1.212.472-2.5.624-4.736.36-5.308-2.172-10.44-3.66-13.04-1.444-2.512-3.816-6.36-9.468-9.92404-2.16-1.364-5.416-2.436-9.0323-2.676z"/></g></svg>

<svg width="221" height="195" viewBox="0 0 221 195" fill="none" xmlns="http://www.w3.org/2000/svg">
<path d="M158.116 139.769C159.107 139.769 160.058 139.376 160.759 138.675C161.46 137.974 161.854 137.023 161.854 136.032C161.854 135.041 161.46 134.09 160.759 133.389C160.058 132.688 159.107 132.294 158.116 132.294C157.125 132.294 156.174 132.688 155.473 133.389C154.772 134.09 154.379 135.041 154.379 136.032C154.379 137.023 154.772 137.974 155.473 138.675C156.174 139.376 157.125 139.769 158.116 139.769ZM176.731 146.034C176.731 147.026 176.337 147.976 175.637 148.677C174.936 149.378 173.985 149.772 172.994 149.772C172.002 149.772 171.052 149.378 170.351 148.677C169.65 147.976 169.256 147.026 169.256 146.034C169.256 145.043 169.65 144.092 170.351 143.392C171.052 142.691 172.002 142.297 172.994 142.297C173.985 142.297 174.936 142.691 175.637 143.392C176.337 144.092 176.731 145.043 176.731 146.034ZM158.136 162.299C158.629 162.299 159.118 162.202 159.573 162.014C160.029 161.825 160.443 161.548 160.791 161.2C161.14 160.851 161.417 160.437 161.605 159.981C161.794 159.526 161.891 159.037 161.891 158.544C161.891 158.051 161.794 157.563 161.605 157.107C161.417 156.652 161.14 156.238 160.791 155.889C160.443 155.54 160.029 155.264 159.573 155.075C159.118 154.886 158.629 154.789 158.136 154.789C157.14 154.789 156.185 155.185 155.481 155.889C154.777 156.593 154.381 157.548 154.381 158.544C154.381 159.54 154.777 160.495 155.481 161.2C156.185 161.904 157.14 162.299 158.136 162.299ZM140.616 114.539C140.616 109.064 145.091 104.429 150.766 104.779C173.001 106.149 192.501 113.629 207.776 128.214C212.111 132.349 211.256 139.104 206.761 142.554C199.766 147.954 192.724 153.293 185.636 158.569V167.269C185.636 170.854 182.861 174.769 178.136 174.769C177.29 174.769 176.45 174.633 175.646 174.369V174.784C175.646 178.349 172.866 182.239 168.131 182.239C164.361 182.239 161.876 179.759 161.001 176.989C158.261 179.039 155.266 181.269 152.591 183.259C147.641 186.944 140.616 183.409 140.616 177.259V114.539ZM175.646 167.269C175.646 168.564 176.616 169.769 178.136 169.769C179.661 169.769 180.636 168.554 180.636 167.269V157.299C180.637 156.905 180.73 156.517 180.909 156.166C181.088 155.815 181.347 155.511 181.666 155.279C185.566 152.449 192.206 147.404 198.086 142.909C184.621 130.094 165.746 122.489 145.616 122.329V177.254C145.618 177.717 145.747 178.17 145.991 178.563C146.234 178.957 146.582 179.275 146.996 179.482C147.409 179.689 147.872 179.778 148.333 179.737C148.794 179.697 149.235 179.53 149.606 179.254C153.536 176.324 158.171 172.874 161.651 170.264C162.023 169.986 162.464 169.816 162.927 169.774C163.389 169.733 163.854 169.821 164.269 170.028C164.685 170.236 165.034 170.555 165.278 170.95C165.522 171.345 165.651 171.8 165.651 172.264V174.784C165.651 176.019 166.601 177.244 168.131 177.244C168.459 177.252 168.785 177.195 169.09 177.074C169.394 176.954 169.672 176.774 169.906 176.545C170.14 176.315 170.326 176.041 170.452 175.739C170.578 175.437 170.643 175.112 170.641 174.784V167.269C170.641 166.606 170.905 165.97 171.373 165.502C171.842 165.033 172.478 164.769 173.141 164.769C173.804 164.769 174.44 165.033 174.909 165.502C175.378 165.97 175.646 166.606 175.646 167.269ZM203.706 138.594C206.031 136.809 206.206 133.629 204.316 131.824C190.031 118.189 171.716 111.074 150.456 109.764C147.866 109.604 145.616 111.734 145.616 114.539V117.329C167.251 117.494 187.631 125.764 202.101 139.829L203.706 138.594Z" fill="black" fill-opacity="0.7"/>
<path d="M57.6119 135.452C57.0958 136.664 56.4632 137.796 55.7033 138.873C49.9377 147.11 38.6715 149.104 30.5502 143.361C27.8176 141.436 25.7022 138.768 24.3965 135.684C24.1361 135.074 23.6527 134.59 23.0458 134.331C22.4389 134.073 21.7548 134.06 21.1346 134.295C12.2757 136.858 3.08195 131.724 0.614331 122.814C-1.85329 113.904 3.33466 104.6 12.2012 102.04C19.7258 99.8533 27.6768 103.239 31.3906 110.213C32.117 111.405 33.6135 111.921 34.9153 111.409C44.2824 107.936 54.6391 112.742 57.9947 122.182C59.5465 126.479 59.4096 131.225 57.6119 135.452ZM6.64385 113.746C5.6446 116.092 5.45731 118.724 6.16672 121.158C6.54892 122.571 7.20495 123.891 8.0971 125.042C8.98924 126.194 10.0999 127.155 11.3652 127.869C12.6306 128.584 14.0256 129.038 15.4701 129.205C16.9146 129.373 18.3802 129.25 19.7824 128.845C23.7418 127.607 27.9717 129.622 29.582 133.476C32.3278 139.823 39.7006 142.658 46.0204 139.837C52.3402 137.015 55.2404 129.569 52.469 123.21C51.2011 120.293 48.8766 117.981 45.9663 116.741C43.0561 115.502 39.778 115.428 36.7964 116.536C34.8839 117.297 32.766 117.322 30.8485 116.607C28.931 115.891 27.3488 114.485 26.4051 112.658C25.0234 110.052 22.6671 108.114 19.8539 107.27C17.0408 106.426 14.0009 106.745 11.4023 108.158C9.88486 109.034 8.61481 110.108 7.61017 111.477L6.64385 113.746ZM14.2891 117.002C15.6907 117.599 17.3316 116.927 17.9355 115.509C18.5395 114.091 17.8868 112.442 16.4852 111.845C15.0836 111.248 13.4427 111.92 12.8387 113.338C12.2348 114.756 12.8874 116.405 14.2891 117.002ZM49.6144 125.954C50.2184 124.536 49.5657 122.888 48.1641 122.291C46.7625 121.694 45.1216 122.366 44.5176 123.784C43.9137 125.202 44.5663 126.85 45.9679 127.447C47.3696 128.044 49.0105 127.372 49.6144 125.954ZM40.8711 125.277C41.4751 123.859 40.8224 122.21 39.4208 121.613C38.0192 121.016 36.3783 121.688 35.7743 123.106C35.1704 124.524 35.823 126.173 37.2247 126.77C38.6263 127.367 40.2672 126.695 40.8711 125.277ZM43.7718 132.604C44.3757 131.186 43.7231 129.537 42.3214 128.94C40.9198 128.344 39.2789 129.015 38.675 130.434C38.071 131.852 38.7237 133.5 40.1253 134.097C41.5269 134.694 43.1678 134.022 43.7718 132.604Z" fill="black" fill-opacity="0.7"/>
<path d="M90.8717 30.0802C91.1349 30.1212 91.4037 30.1092 91.6622 30.045C91.9207 29.9807 92.1638 29.8655 92.3772 29.706C92.5906 29.5465 92.7699 29.346 92.9048 29.1163C93.0396 28.8865 93.1272 28.6322 93.1623 28.3681C93.1975 28.104 93.1796 27.8356 93.1096 27.5786C93.0396 27.3216 92.919 27.0811 92.7548 26.8713C92.5906 26.6616 92.3861 26.4867 92.1535 26.357C91.9208 26.2273 91.6645 26.1454 91.3997 26.1162C87.6397 25.6162 84.2797 28.4722 84.2797 32.6402C84.2797 33.1706 84.4904 33.6793 84.8655 34.0544C85.2406 34.4294 85.7493 34.6402 86.2797 34.6402C86.8102 34.6402 87.3189 34.4294 87.6939 34.0544C88.069 33.6793 88.2797 33.1706 88.2797 32.6402C88.2797 30.8122 89.5917 29.9082 90.8717 30.0802ZM92.2477 51.6202C97.0163 51.6202 101.59 49.7258 104.962 46.3539C108.333 42.982 110.228 38.4088 110.228 33.6402C110.228 28.8716 108.333 24.2983 104.962 20.9264C101.59 17.5545 97.0163 15.6602 92.2477 15.6602C87.4791 15.6602 82.9059 17.5545 79.534 20.9264C76.162 24.2983 74.2677 28.8716 74.2677 33.6402C74.2677 38.4088 76.162 42.982 79.534 46.3539C82.9059 49.7258 87.4791 51.6202 92.2477 51.6202ZM92.2477 47.6202C88.54 47.6202 84.9841 46.1473 82.3624 43.5255C79.7406 40.9038 78.2677 37.3479 78.2677 33.6402C78.2677 29.9324 79.7406 26.3766 82.3624 23.7548C84.9841 21.133 88.54 19.6602 92.2477 19.6602C95.9555 19.6602 99.5113 21.133 102.133 23.7548C104.755 26.3766 106.228 29.9324 106.228 33.6402C106.228 37.3479 104.755 40.9038 102.133 43.5255C99.5113 46.1473 95.9555 47.6202 92.2477 47.6202ZM97.1197 0.0601588C101.3 0.332159 105.224 1.57616 108.028 3.34416C114.456 7.40416 117.228 11.8682 118.828 14.6642C120.384 17.3762 123.452 23.3962 123.012 29.9602C122.897 31.7283 122.664 33.4868 122.316 35.2242L122.156 36.0802C121.932 37.3762 121.792 38.7042 122.028 41.5922C122.308 44.9962 121.62 48.7242 120.18 52.0322C118.74 55.3322 116.48 58.3802 113.468 60.2602C107.208 64.1722 99.6677 65.0202 92.5957 62.1922C89.3597 60.9002 88.2677 60.5922 87.0437 60.5202C86.1825 60.4884 85.3202 60.4964 84.4597 60.5442H84.4317C83.2717 60.5922 81.7837 60.6482 79.7157 60.6482C70.6237 60.6482 64.5757 55.2082 61.4877 49.2722C56.9637 40.5682 57.0877 27.3922 67.0357 19.5402C70.0757 17.1402 70.9837 16.3402 72.0077 14.6322C73.6917 11.8242 75.2917 9.62416 77.2277 7.72816C79.1677 5.82416 81.3717 4.29216 84.2037 2.73616C88.3197 0.472158 92.9237 -0.215842 97.1197 0.0561582M96.8597 4.04816C93.2597 3.80816 89.4437 4.41616 86.1277 6.24016C83.5117 7.68016 81.6317 9.00816 80.0277 10.5802C78.4237 12.1562 77.0237 14.0442 75.4397 16.6842C73.9917 19.0962 72.5277 20.2962 69.5157 22.6722C61.4757 29.0202 61.1317 39.9122 65.0357 47.4242C67.6157 52.3842 72.4677 56.6442 79.7157 56.6442C81.7077 56.6442 83.1397 56.5882 84.2877 56.5442H84.3637C85.4677 56.5042 86.4037 56.4642 87.2957 56.5242C89.2277 56.6442 90.8557 57.1842 94.0797 58.4762C99.9237 60.8122 106.128 60.1282 111.348 56.8642C113.5 55.5202 115.308 53.2042 116.512 50.4282C117.72 47.6602 118.264 44.5962 118.044 41.9162C117.78 38.7202 117.924 37.0522 118.216 35.3882L118.396 34.4242C118.624 33.2122 118.868 31.9242 119.02 29.6882C119.38 24.3802 116.848 19.2482 115.36 16.6482C113.916 14.1362 111.544 10.2882 105.892 6.72416C103.732 5.36016 100.476 4.28816 96.8597 4.04816Z" fill="black" fill-opacity="0.7"/>
</svg>
